X:16000
T:Planxty Scott
R:Air
C:O'Carolan 1670-1738
O:Ireland
Z:Paul Hardy's Possible Tunebook 2015 (see www.paulhardy.net). Creative Commons cc by-nc-sa licenced.
M:6/8
L:1/8
Q:3/8=60
K:D
"D"D>EF/G/ A2B|ABd F>ED|"Em"EFA B2 d/e/|"Bm"fg/f/e/d/ B2d|"D"D>EF/G/ A2B|ABd "Bm"F>ED|
"G"GA/G/F/E/ "Bm"FG/F/E/D/|"A"EE/F/G/A/ "Bm"B2c|d/f/e/d/c/e/ "D"d2 c/B/|"G"B/A/G/A/B/c/ "D"A2 B/c/|"Bm"dFd FdF|"D"EDD D2z||
"Bm"dDF de/d/c/B/|"D"A>Bd "Bm"FED|"A"eEe/f/ e2 d/e/|"Bm"fg/f/e/d/ B2 (3A/B/c/|"D"dAd "Bm"d/c/d/e/f/e/|"G"d/e/d/B/A/G/ "Bm"F>ED|
"G"G/A/BG "D"F/G/AF|"Em"E/F/GE "Bm"F>ED|"D"FAA A>FD|"G"GBB "Bm"B>cd|"D"AF/A/F "Em"GE/G/E|"D"FDD D2z||

